packages/web-icons/svgs/hot_1.svg

<svg viewBox="0 0 94 36" xmlns="http://www.w3.org/2000/svg" class="ridi_icon"><path d="M50.2 12.5c-3.1 0-6.2 2.9-6.2 6.5 0 2.7 1.7 4.4 4.2 4.4 3.1 0 6.2-2.9 6.2-6.7 0-2.5-1.7-4.2-4.2-4.2z"/><path d="M75.3 0H18.7C8.8 0 .7 8.1.7 18s8.1 18 18 18h56.6c9.9 0 18-8.1 18-18s-9.5-18-18-18zM34.5 27.2h-4.6l1.4-7.2h-6.8l-1.4 7.2h-4.6l3.7-18.5h4.6l-1.5 7.2h6.9l1.5-7.2h4.6l-3.8 18.5zm13.6.5c-5.4 0-8.8-3.5-8.8-8.4 0-6 5.2-11 11-11 5.3 0 8.8 3.4 8.8 8.2 0 6-5.3 11.2-11 11.2zm28.2-15.3h-5.6l-2.8 14.9h-4.6l2.8-14.9h-5.6l1.3-3.6h15.5l-1 3.6z"/></svg>

<?xml version="1.0" encoding="UTF-8"?>
<svg width="94px" height="36px" viewBox="0 0 94 36" version="1.1" xmlns="http://www.w3.org/2000/svg">
  <!-- Generator: Sketch 41.2 (35397) - http://www.bohemiancoding.com/sketch -->
  <title>hot_1</title>
  <desc>Created with Sketch.</desc>
  <defs></defs>
  <g id="Page-1" stroke="none" stroke-width="1" fill="none" fill-rule="evenodd">
    <g id="hot_1" fill="#000000">
      <g id="Layer_1">
        <g id="XMLID_3_">
          <path d="M50.2,12.5 C47.1,12.5 44,15.4 44,19 C44,21.7 45.7,23.4 48.2,23.4 C51.3,23.4 54.4,20.5 54.4,16.7 C54.4,14.2 52.7,12.5 50.2,12.5 Z" id="XMLID_4_"></path>
          <path d="M75.3,0 L18.7,0 C8.8,0 0.7,8.1 0.7,18 L0.7,18 C0.7,27.9 8.8,36 18.7,36 L75.3,36 C85.2,36 93.3,27.9 93.3,18 L93.3,18 C93.3,8.1 83.8,0 75.3,0 Z M34.5,27.2 L29.9,27.2 L31.3,20 L24.5,20 L23.1,27.2 L18.5,27.2 L22.2,8.7 L26.8,8.7 L25.3,15.9 L32.2,15.9 L33.7,8.7 L38.3,8.7 L34.5,27.2 Z M48.1,27.7 C42.7,27.7 39.3,24.2 39.3,19.3 C39.3,13.3 44.5,8.3 50.3,8.3 C55.6,8.3 59.1,11.7 59.1,16.5 C59.1,22.5 53.8,27.7 48.1,27.7 Z M76.3,12.4 L70.7,12.4 L67.9,27.3 L63.3,27.3 L66.1,12.4 L60.5,12.4 L61.8,8.8 L77.3,8.8 L76.3,12.4 Z" id="XMLID_12_"></path>
        </g>
      </g>
    </g>
  </g>
</svg>
